src/icons/datapower-monitoring.svg

<?xml version="1.0" encoding="UTF-8"?>
<svg xmlns="http://www.w3.org/2000/svg" xmlns:xlink="http://www.w3.org/1999/xlink" width="32" height="32" viewBox="0 0 32 32" version="1.1">
<defs>
<filter id="alpha" filterUnits="objectBoundingBox" x="0%" y="0%" width="100%" height="100%">
  <feColorMatrix type="matrix" in="SourceGraphic" values="0 0 0 0 1 0 0 0 0 1 0 0 0 0 1 0 0 0 1 0"/>
</filter>
<image id="image9" width="32" height="32" xlink:href="data:image/png;base64,iVBORw0KGgoAAAANSUhEUgAAACAAAAAgCAYAAABzenr0AAAABmJLR0QA/wD/AP+gvaeTAAACTElEQVRYhe3WS4iOYRQH8J8ZMuMSMzUSzZCZGrNjIcmlsDTKLdfVCAtWJMqElUshmlImNRtKIhaIlYQFKxu3IuW2kMvCuGXcFuf58nn7ZuYdKZvvX8/iO+d7zvn/zznP87yUUUYZ/xmDBvj/CszGPLSgJtnf4QGu4iZ+/CuCBdTjMF7iJ97iOs6mdSOR+IkXOITxeQL3V4EatGMTPuEUzmA0FqNJqH2Ic/iM5ViFoejAPrzPQyaLGXiCj9ifkjbitlB6DycTqUfJdk0oH4HtKfFT0bYBoR3fRT8nJlu9KO8TzC2xpzX5H6Mu2RpxCz3YmifxYHQJNXtRWeS7nBKM62P/JLzB6UzMgynmUTHIJVGZNvagLeObkgKszCFig5iLpox9o6hqV28kOvFNDFEWO0Q/h+QgMAJfxeBm0ZZI7Mo6VgiFm3sJ2ok7OZIXcK1UkoTVogIN/C7FM3HMWlFVYtMXDBsAgRaly1yBK+L4d2ed88U5vliCRKF0fQ1gAZNFNRdn7JWJWEMv5MACofY6aovstYlxRw4CJ/Aaw4ts1ULgTDkqOUdctY8wrci+TVRhXR97twj164tsE9LvZRjVL/2EZjF0X7EzKajAcXHEJohrukoonYpj4ggfSDGqxHAfES0cmTd5AUNTsB48F8qrMV20ZBbWimv6vLiolooSr8El8T4s8ueF9gfyPMfN2IMl+IALaT1I/pFCbR0WptUtZqFDvKD/BM3Yjfuiz6XWXXH+G/MGHegHSQFjE6ExKfFr8SS/+st4ZZRRxv/DLwC5hB2mXB79AAAAAElFTkSuQmCC"/>
<mask id="mask0">
  <g filter="url(#alpha)">
<use xlink:href="#image9"/>
  </g>
</mask>
<linearGradient id="linear0" gradientUnits="userSpaceOnUse" x1="0.39" y1="47.27" x2="47.529999" y2="0.12" gradientTransform="matrix(0.666667,0,0,0.666667,0,0)">
<stop offset="0.1" style="stop-color:rgb(3.137255%,74.117649%,72.941178%);stop-opacity:1;"/>
<stop offset="0.9" style="stop-color:rgb(54.11765%,24.705882%,98.823529%);stop-opacity:1;"/>
</linearGradient>
<clipPath id="clip2">
  <rect x="0" y="0" width="32" height="32"/>
</clipPath>
<g id="surface8" clip-path="url(#clip2)">
<path style=" stroke:none;fill-rule:nonzero;fill:url(#linear0);" d="M 0.261719 0.078125 L 31.691406 0.078125 L 31.691406 31.511719 L 0.261719 31.511719 Z M 0.261719 0.078125 "/>
</g>
<clipPath id="clip1">
  <rect x="0" y="0" width="32" height="32"/>
</clipPath>
<g id="surface11" clip-path="url(#clip1)">
<use xlink:href="#surface8" mask="url(#mask0)"/>
</g>
</defs>
<g id="surface1">
<use xlink:href="#surface11"/>
<path style="fill:none;stroke-width:1.060764;stroke-linecap:butt;stroke-linejoin:miter;stroke:rgb(0%,0%,0%);stroke-opacity:1;stroke-miterlimit:10;" d="M 28.382812 23.689453 L 43.107422 23.689453 M 21.732422 19.892578 L 14.390625 7.277344 M 14.390625 40.107422 L 21.738281 27.498047 M 44.589844 22.21875 C 43.992188 22.21875 43.447266 22.576172 43.212891 23.126953 C 42.984375 23.683594 43.107422 24.322266 43.535156 24.744141 C 43.957031 25.171875 44.595703 25.294922 45.152344 25.066406 C 45.703125 24.832031 46.066406 24.292969 46.060547 23.689453 C 46.060547 22.880859 45.404297 22.21875 44.589844 22.21875 Z M 13.652344 4.541016 C 13.048828 4.535156 12.503906 4.898438 12.275391 5.449219 C 12.041016 6.005859 12.169922 6.644531 12.597656 7.072266 C 13.025391 7.494141 13.664062 7.617188 14.220703 7.382812 C 14.771484 7.148438 15.128906 6.603516 15.117188 6 C 15.117188 5.191406 14.455078 4.541016 13.652344 4.541016 Z M 13.652344 39.902344 C 13.048828 39.896484 12.503906 40.253906 12.275391 40.810547 C 12.041016 41.361328 12.169922 42 12.591797 42.427734 C 13.019531 42.849609 13.658203 42.978516 14.208984 42.744141 C 14.765625 42.515625 15.123047 41.970703 15.117188 41.367188 C 15.117188 40.558594 14.460938 39.902344 13.652344 39.902344 Z M 24 19.271484 C 21.556641 19.271484 19.582031 21.246094 19.582031 23.689453 C 19.582031 26.132812 21.556641 28.107422 24 28.107422 C 26.443359 28.107422 28.417969 26.132812 28.417969 23.689453 C 28.417969 21.246094 26.443359 19.271484 24 19.271484 Z M 24 19.271484 " transform="matrix(0.666667,0,0,0.666667,0,0)"/>
</g>
</svg>

<svg xmlns:xlink="http://www.w3.org/1999/xlink" role="img" viewBox="0 0 32 32" xmlns="http://www.w3.org/2000/svg"><defs><clipPath id="c"><use xlink:href="#a"/></clipPath><clipPath id="e"><use xlink:href="#a"/></clipPath><g clip-path="url(#c)" id="f"><path d="M.262.078h31.43v31.434H.261Zm0 0" style="stroke:none;fill-rule:nonzero;fill:url(#d)"/></g><g clip-path="url(#e)" id="i"><use xlink:href="#f" mask="url(#g)"/></g><linearGradient gradientTransform="scale(.66667)" gradientUnits="userSpaceOnUse" id="d" x1=".39" x2="47.53" y1="47.27" y2=".12"><stop offset=".1" style="stop-color:rgb(3.137255%,74.117649%,72.941178%);stop-opacity:1"/><stop offset=".9" style="stop-color:rgb(54.11765%,24.705882%,98.823529%);stop-opacity:1"/></linearGradient><filter filterUnits="objectBoundingBox" height="100%" id="h" width="100%" x="0%" y="0%"><feColorMatrix in="SourceGraphic" values="0 0 0 0 1 0 0 0 0 1 0 0 0 0 1 0 0 0 1 0"/></filter><path d="M0 0h32v32H0z" id="a"/><mask id="g"><g filter="url(#h)"><use xlink:href="#b"/></g></mask></defs><use xlink:href="#i"/><path d="M28.383 23.69h14.724m-21.375-3.797L14.391 7.277m0 32.83 7.347-12.609m22.852-5.28c-.598 0-1.143.358-1.377.909a1.479 1.479 0 0 0 .322 1.617 1.479 1.479 0 0 0 2.526-1.055c0-.808-.657-1.47-1.471-1.47ZM13.652 4.542A1.48 1.48 0 1 0 15.117 6c0-.809-.662-1.459-1.465-1.459Zm0 35.361a1.48 1.48 0 0 0-1.06 2.525 1.48 1.48 0 0 0 2.525-1.06c0-.808-.656-1.465-1.465-1.465ZM24 19.272a4.414 4.414 0 0 0-4.418 4.417A4.414 4.414 0 0 0 24 28.107a4.414 4.414 0 0 0 4.418-4.418A4.414 4.414 0 0 0 24 19.271Zm0 0" style="fill:none;stroke-width:1.060764;stroke-linecap:butt;stroke-linejoin:miter;stroke:rgb(0%,0%,0%);stroke-opacity:1;stroke-miterlimit:10" transform="scale(.66667)"/></svg>
